X:1
T:D minor Alexander Johnson, 1818
T:Timothy Dwight, 1789 11 11. 11 11.
T:Columbia
T:Transcribed from Southern Harmony, 1845
%%score [ 1 2 3 ]
L:1/8
Q:1/4=85
M:2/4
K:F
V:1 treble nm="Tr." snm="Tr."
V:2 treble-8 nm="T." snm="T."
V:3 bass nm="B." snm="B."
V:1
 z2 d2 | d2 cd | A2 GA | G>A GF | G2 AB | c2 Ad | ed cd | A2 dd | d4 | z2 c2 | d2 cd | A2 GA | %12
 G>A GF | G2 AB | c2 Ad | f2 cd | A2 dd | d4 | z2 c2 | f2 dc | A2 Ad | c2 cd | e2 fg | a2 dc | %24
 d2 ce | f2 aa | d4 | z2 ag | f2 ad | c2 Ac | fa ge | c3 c | d2 ec | A2 de | c2 AA | d4 |] %36
V:2
 z2"^Thus, as down a lone valley, with cedars o'er-spread,   From  war's  dread  con – fu  –  sion   I       pen-sive-ly strayed,   The  gloom  from  the  face  of  fair  hea–ven re –" A2 | %1
 B2 AG | A2 Ac | d>c dA | G2 FE | D>E FG | AB AG | F2 DD | D4 | z2 A2 | B2 AG | A2 Ac | d>c dA | %13
"^–tired; The winds ceased to murmur; the thunders expired;     Perfumes,  as  of  Eden, flow'd sweetly along,  And    a    voice,  as  of        angels,   enchantingly sung:    \"Co –" G2 FG | %14
 A2 fd | d2 AG | F2 DD | D4 | z2 A2 | d2 fg | a2 ad | g>f ga | g2 fe | d>e fg | ab ag | f2 dd | %26
 d4 | z2 fg | %28
"^–lum–bia, Co–lum–bia, to  glo    –    ry   a  –   rise,      The queen of the    world    and   the   child   of   the  skies.\"" a2 fa | %29
 g2 eg | fd cA | f3 e | d2 AF | G>A BG | A2 DD | D4 |] %36
V:3
 z2 D,2 | D,2 D,C, | D,2 A,,C, | D,E, D,D, | C,2 D,E, | F,2 F,E, | A,>G, F,E, | A,2 A,,D, | D,4 | %9
 z2 D,2 | D,2 D,C, | D,2 A,,C, | D,E, D,D, | C,2 D,E, | F,2 F,E, | A,>G, F,E, | A,2 A,,D, | D,4 | %18
 z2 F,2 | D,2 F,G, | A,2 A,B, | C2 CA, | G,2 F,G, | G,2 F,E, | D,>E, F,G, | A,B, A,D, | D,4 | %27
 z2 A,G, | %28
"^_________________________________________\nEdited  by B. C. Johnston, 2017\n   1. Measures 9-10: changed from dotted-quarter and eighth (one measure) to half-note, quarter rest and quarter (two measures), \n        to correspond with endings of other two-line strophes." A,2 DA, | %29
 C2 A,G, | F,>G, A,D, | F,3 A, | G,2 A,D, | C,2 E,G, | A,2 A,,D, | D,4 |] %36

